!!!COM:	Du Fay, Guillaume
!!!CDT:	~1397/08/05/-1474/11/27
!!!OTL:	Adieu ces bons vins de Lannoys
!!!AGN:	Song; Chanson
!!!SCT:	Duf3016
!!!SCA:	Duf3016
!!!voices:	3
**kern	**kern	**kern	**text	**text	**text
*staff3	*staff2	*staff1	*staff1	*staff1	*staff1
*Ivox	*	*Ivox	*	*Ivox	*
*I"Tenor	*I"Contratenor	*I"Cantus	*	*	*
*I'T	*I'Ct	*I'Cn	*	*	*
*clefGv2	*clefGv2	*clefG2	*	*	*
*k[]	*k[]	*k[]	*	*	*
*M3/1	*M3/1	*M3/1	*	*	*
*met(O)	*met(O)	*met(O)	*	*	*
=1-	=1-	=1-	=1-	=1-	=1-
!LO:TX:Y=20:t=Adieu ces bon vins etc.	!LO:TX:Y=30:t=Adieu ces bon vins	!	!	!	!
0d	0D	0d	1.4.7. A-	3. Je	5. De
1c	1A	1e	.	.	.
=2	=2	=2	=2	=2	=2
0d	0D	1.f	.	.	.
.	.	2e/	.	.	.
1B-i	1d	2f/	.	.	.
.	.	2d/	.	.	.
=3	=3	=3	=3	=3	=3
0A	0c	1e	.	.	.
.	.	1r	.	.	.
1G	1B-i	1g	.	.	.
=4	=4	=4	=4	=4	=4
0c	1A	2a/	.	.	.
.	.	2b-i\	.	.	.
.	1F	2a/	.	.	.
.	.	2g/	.	.	.
1B-i	1G	2g/	.	m'en	.
.	.	2f/	.	.	.
=5	=5	=5	=5	=5	=5
0.A	0D	1a	-dieu,	vois,	moy,
.	.	1r	.	.	.
.	1D	1a	A-	Je	De
=6	=6	=6	=6	=6	=6
0.G	1d	1b-	-dieu	m'en	moy
.	1r	1a	.	.	.
.	1d	1g	ces	vois	se-
=7	=7	=7	=7	=7	=7
0D	1d	0f	bon	tout	-r&eacute;s,
.	1c	.	.	.	.
1G	1B-i	1e	vins	cer-	par
=8	=8	=8	=8	=8	=8
0F	1.A	0d	de	-quant	plu-
.	2G/	.	.	.	.
1E	2G/	1c#i	Lan-	de	-sieurs
.	2F/	.	.	.	.
=9	=9	=9	=9	=9	=9
0.D	0A	1d	-noys,	nois,	fois
.	.	1r	.	.	.
.	1d	1f	A-	Car	Re-
=10	=10	=10	=10	=10	=10
0A	0c	0e	-dieu	je	-gre-
1B-i	1d	1d	da-	ne	-t&eacute;s
=11	=11	=11	=11	=11	=11
0A	1e	0c	-mes	truis	par
.	2d\	.	.	.	.
.	1c	.	.	.	.
1E	.	1e	a-	fe-	de-
.	2B\	.	.	.	.
=12	=12	=12	=12	=12	=12
0F	1A	1d	-dieu	-ves	-dans
.	1r	1c	.	.	.
1G	1G	1B	bor-	ne	les
=13	=13	=13	=13	=13	=13
0A	0D	1A	-gois,	pois	bois,
.	.	1r	.	.	.
1D	1F	1A	A-	Dont	Ou
=14	=14	=14	=14	=14	=14
1G	1E	2B/	-dieu	bien	il
.	.	2c/	.	.	.
1F	1D	2d/	.	.	.
.	.	2d/	cel-	sou-	ny
1E	1G	2c#i/	.	.	.
.	.	2B/	.	.	.
=15	=15	=15	=15	=15	=15
0D	0A	0d	-le	-vent	a
1D	1A	1a	que	au	sen
=16	=16	=16	=16	=16	=16
0A	0c	1a	tant	cuer	tier
.	.	1g	.	.	.
1A	1c	1f	a-	m'en-	ne
=17	=17	=17	=17	=17	=17
0G	0B	1.e	-moy-	-noy-	voy-
.	.	2d/	.	.	.
1F	1A	2d/	.	.	.
.	.	2c/	.	.	.
=18	=18	=18	=18	=18	=18
0.E;	2B;\	1e;	-e,	-e.	-e
.	2A/	.	.	.	x
.	2G/	1r	.	.	.
.	2F/	.	.	.	.
.	2G/	1r	.	.	.
.	2E/	.	.	.	.
=19	=19	=19	=19	=19	=19
0.d	1D	0.a	2.8. A-	6. Puis	.
.	1r	.	.	.	.
.	1F	.	.	.	.
=20	=20	=20	=20	=20	=20
0e	1E	0g	-dieu	ne	.
.	1C	.	.	.	.
1d	1D	1a	tou-	sca-	.
=21	=21	=21	=21	=21	=21
0G	2r	1b	-te	-ray	.
.	1E	.	.	.	.
.	.	1cc	.	.	.
.	2F/	.	.	.	.
1d	1G	1b	plays-	1ue	.
=22	=22	=22	=22	=22	=22
0c	0A	0a	-san-	fai-	.
1B-i	1d	1g	-te	-re	.
=23	=23	=23	=23	=23	=23
1A	1c	1a	joy-	doy-	.
1G	1B-i	2r	.	.	.
.	.	2d/	.	.	.
1c	1A	2e/	.	.	.
.	.	2f/	.	.	.
=24	=24	=24	=24	=24	=24
1B-i	1G	2g/	.	.	.
.	.	2a/	.	.	.
0A	0D	2g/	.	.	.
.	.	2f#i/	.	.	.
.	.	2f#i/	.	.	.
.	.	2e/	.	.	.
=25	=25	=25	=25	=25	=25
0.G	0d	1g	-e,	-e,	.
.	.	1r	.	.	.
.	1d	1g	A-	Se	.
=26	=26	=26	=26	=26	=26
0D	1d	1.a	-dieu	je	.
.	1c	.	.	.	.
.	.	1.g	tous	ne	.
1E	1B	.	.	.	.
=27	=27	=27	=27	=27	=27
1F	2A/	1.f	com-	crie	.
.	1D	.	.	.	.
1G	.	.	.	.	.
.	1E	1.e	-pai-	a	.
1A	.	.	.	.	.
.	2F/	.	.	.	.
=28	=28	=28	=28	=28	=28
!	!LO:TX:X=-20:Y=18:t=Rest of this voice now missing in	!	!	!	!
!	!LO:TX:X=-20:Y=40:t=the MS, editorial reconstruction	!	!	!	!
0B-	0G	1.d	-gnons	haul-	.
.	.	1.c#i	ga-	-te	.
1A	1A	.	.	.	.
=29	=29	=29	=29	=29	=29
1G	1B-	1d	-lois.	vois.	.
0D	0A	2r	.	.	.
.	.	2d/	.	.	.
.	.	2f/	.	.	.
.	.	2g/	.	.	.
=30	=30	=30	=30	=30	=30
0d	1D	1a	.	.	.
.	2G/	2b-i\	.	.	.
.	2A/	2a/	.	.	.
1d	1B	2g/	.	.	.
.	.	2f/	.	.	.
=31	=31	=31	=31	=31	=31
0A	0c	2e/	.	.	.
.	.	2d/	.	.	.
.	.	2e/	.	.	.
.	.	2f/	.	.	.
1G	1B	2g/	.	.	.
.	.	2f/	.	.	.
=32	=32	=32	=32	=32	=32
0F	0A	2d/	.	.	.
.	.	2A/	.	.	.
.	.	2d/	.	.	.
.	.	2e/	.	.	.
1E	1G	2c#i/	.	.	.
.	.	2B/	.	.	.
=33	=33	=33	=33	=33	=33
0.Dl	0.Al	0.dl	.	.	.
==	==	==	==	==	==
*-	*-	*-	*-	*-	*-
!!!RDF**kern: l=long note in original notation
!!!RDF**kern: i=editorial accidental
!!!ENC:	Alejandro Planchart
!!!END:	2013///
!!!EED:	Alejandro Planchard; Jesse Rodin
!!!EEV:	2014/05/14/
!!!ONB:	Translated from MusicXML and edited on 2014/05/14/ by Craig Sapp
!!muse2ps: C^@{COM}^i2I150v95,110,120Q16
